icons/moltin.svg

<?xml version="1.0" encoding="UTF-8"?>
<svg width="512px" height="162px" viewBox="0 0 512 162" version="1.1" xmlns="http://www.w3.org/2000/svg" xmlns:xlink="http://www.w3.org/1999/xlink" preserveAspectRatio="xMidYMid">
    <defs>
        <linearGradient x1="38.0785947%" y1="8.52777764%" x2="53.2429642%" y2="60.7677321%" id="linearGradient-1">
            <stop stop-color="#E67417" offset="1.093%"></stop>
            <stop stop-color="#E62F17" offset="99.952%"></stop>
        </linearGradient>
        <linearGradient x1="49.9974855%" y1="0.659475043%" x2="49.9974855%" y2="97.2760076%" id="linearGradient-2">
            <stop stop-color="#F2BB30" offset="0%"></stop>
            <stop stop-color="#E67417" offset="30.905%"></stop>
            <stop stop-color="#E62F17" offset="100%"></stop>
        </linearGradient>
        <linearGradient x1="41.2588189%" y1="84.7879279%" x2="55.3187109%" y2="36.661925%" id="linearGradient-3">
            <stop stop-color="#FFFFFF" offset="0%"></stop>
            <stop stop-color="#FFFFFF" stop-opacity="0" offset="100%"></stop>
        </linearGradient>
    </defs>
    <g>
        <path d="M191.390831,57.1404458 C197.810321,50.7209642 204.229581,46.7602602 212.424644,46.7602602 C221.985391,46.7602602 228.54138,50.3112447 231.409604,58.7793322 C239.877692,50.0380159 246.570411,46.7602602 254.35555,46.7602602 C268.013739,46.7602602 274.842948,54.5453994 274.842948,72.0280234 L274.842948,112.866347 L259.272499,112.866347 L259.272499,76.1254826 C259.272499,65.8817876 257.497131,61.237905 250.121472,61.237905 C244.931371,61.237905 239.468049,64.3794004 233.185297,71.0718804 L233.185297,112.866347 L217.751262,112.866347 L217.751262,76.1254826 C217.751262,65.8817876 215.565935,61.237905 208.327049,61.237905 C202.590737,61.237905 196.854195,64.9256191 191.390874,71.20861 L191.390874,112.866347 L175.957043,112.866347 L175.957043,47.9894186 L191.390831,47.9894186 L191.390831,57.1404458 Z M347.138321,80.7693396 C347.138321,101.120239 334.299341,114.095479 314.084941,114.095479 C293.870541,114.095479 281.168521,101.120239 281.168521,80.7693396 C281.168521,59.8722303 294.007031,46.6235306 314.084941,46.7602602 C334.299366,46.6235306 347.138321,59.8722303 347.138321,80.7693396 Z M331.977523,80.7693396 C331.977523,67.1108863 325.012053,59.4622719 314.084941,59.4622719 C303.295266,59.4622719 296.329327,67.1109204 296.329327,80.7693396 C296.329327,93.8813098 303.158767,101.25673 314.084941,101.25673 C325.012053,101.25673 331.977523,93.8813098 331.977523,80.7693396 Z M353.241054,112.866347 L353.241054,24.0873044 L368.67485,24.0873044 L368.67485,112.866347 L353.241054,112.866347 Z M421.885636,110.134775 C416.682814,112.284037 411.12416,113.442076 405.49591,113.549261 C391.154551,113.549261 385.28151,106.99328 385.28151,90.8765439 L385.28151,60.8281172 L375.721233,60.8281172 L375.721233,47.852689 L385.28151,47.852689 L385.28151,32.282402 L400.852284,32.282402 L400.852284,47.852689 L418.880913,47.852689 L418.880913,60.8281599 L400.852267,60.8281599 L400.852267,90.1935956 C400.852267,97.9787434 403.584043,100.16407 410.959471,100.16407 C414.064451,100.210507 417.168628,100.027939 420.246758,99.6178516 L421.885636,110.134775 Z M436.988032,20.6728191 C441.768175,20.6728191 446.002338,23.5410858 446.002338,29.0044074 C446.002338,34.467729 441.768175,37.1992746 436.988032,37.1992746 C432.207889,37.1992746 427.973734,34.4677546 427.973734,29.0044074 C427.973734,23.5410602 432.207898,20.6728191 436.988032,20.6728191 Z M429.339622,112.866347 L429.339622,47.9894186 L444.772941,47.9894186 L444.772941,112.866347 L429.339622,112.866347 Z M467.746517,57.0039551 C474.848956,50.7209642 481.678396,46.7602602 490.829184,46.7602602 C505.170551,46.7602602 511.999991,54.4086868 511.999991,72.0280234 L511.999991,112.866347 L496.565751,112.866347 L496.565751,76.1254826 C496.565751,65.6085674 494.926874,61.237905 486.322057,61.237905 C479.356117,61.237905 473.210086,65.0623487 467.746526,71.3451092 L467.746526,112.866347 L452.313199,112.866347 L452.313199,47.9894186 L467.746517,47.9894186 L467.746517,57.0039551 Z" fill="#3D3D3D"></path>
        <g transform="translate(0.000000, -0.000000)">
                <path d="M136.040405,40.6672639 L73.3082624,4.44923723 C71.9203332,3.64974303 70.2117031,3.64974303 68.8237739,4.44923723 L6.09163947,40.6672639 C4.70423303,41.4692179 3.8496256,42.9500951 3.8496256,44.5526015 L3.8496256,116.988655 C3.8496256,118.590656 4.70435533,120.07095 6.09163947,120.872107 L68.8237739,157.090133 C70.2117003,157.889638 71.920336,157.889638 73.3082624,157.090133 L136.040405,120.872107 C137.427685,120.070947 138.282411,118.590654 138.282411,116.988655 L138.282411,44.5526015 C138.282411,42.9500973 137.427807,41.4692214 136.040405,40.6672639 L136.040405,40.6672639 Z" fill="#FFFFFF"></path>
                <path d="M137.968034,37.334562 L75.2330752,1.11466657 C72.6541509,-0.371555523 69.4788241,-0.371555523 66.8998997,1.11466657 L4.16682667,37.3326932 C1.59248492,38.826802 0.00577626399,41.5761167 0,44.5526186 L0,116.988672 C0.00500506016,119.96501 1.59222679,122.714186 4.167296,124.206711 L66.8989611,160.424738 C69.4772154,161.913463 72.6538822,161.913463 75.2321365,160.424738 L137.965218,124.206711 C140.540025,122.713985 142.127025,119.964884 142.132045,116.988672 L142.132045,44.5526186 C142.126606,41.5772505 140.541023,38.8287409 137.968034,37.334562 Z M138.282411,116.988689 C138.282411,118.590688 137.427685,120.070981 136.040405,120.872141 L73.3082624,157.090167 C71.920336,157.889672 70.2117003,157.889672 68.8237739,157.090167 L6.09163947,120.872141 C4.70435533,120.070985 3.8496256,118.59069 3.8496256,116.988689 L3.8496256,44.5526356 C3.8496256,42.9501292 4.70423303,41.4692521 6.09163947,40.667298 L68.8237739,4.44927137 C70.2117031,3.64977717 71.9203332,3.64977717 73.3082624,4.44927137 L136.040405,40.667298 C137.427807,41.4692555 138.282411,42.9501314 138.282411,44.5526356 L138.282411,116.988689 Z" fill="#999999"></path>
                <path d="M14.8202667,116.185566 C13.243305,115.275113 12.2718529,113.592521 12.2718464,111.771605 L12.2718464,74.9963519 C12.1565245,70.7721134 12.777742,66.5600616 14.1076565,62.5489748 C16.2467072,56.7752532 20.4772523,51.1268607 28.8631893,47.7956522 C44.9311744,41.4128468 60.8122112,50.0427178 69.7840299,62.8358655 C77.3174869,73.5780095 81.7142357,77.8490196 91.1871659,85.1010388 C99.5752448,91.5225172 125.881651,103.071386 129.860335,80.0680788 L129.860335,111.771631 C129.860335,113.592545 128.888883,115.275137 127.311923,116.185591 L73.6144896,147.187823 C72.0375317,148.098278 70.0946411,148.098278 68.5176832,147.187823 L14.8202667,116.185566 Z" fill="url(#linearGradient-1)"></path>
                <path d="M14.8202667,116.185566 L68.5177003,147.187797 C70.0946581,148.098252 72.0375488,148.098252 73.6145067,147.187797 L127.31194,116.185566 C128.8889,115.275112 129.860352,113.592519 129.860352,111.771605 L129.860352,80.0680532 C129.860352,56.5846698 103.66697,54.6458964 90.167552,73.3095935 C79.467904,88.1024255 74.7286272,93.3987668 60.40576,98.607121 C43.6433579,104.702541 28.5978539,101.397282 20.0413355,93.0267818 C15.1477662,88.2952347 12.350132,81.8028424 12.2718464,74.9963434 L12.2718464,111.771597 C12.2718464,113.592515 13.2433024,115.275111 14.8202667,116.185566 L14.8202667,116.185566 Z" fill="url(#linearGradient-2)"></path>
                <path d="M129.860326,80.0680532 C129.860326,56.5846954 103.666944,54.6458794 90.1674581,73.3095935 C88.3099136,75.877794 86.6343851,78.1540692 85.0547627,80.1990058 C86.877568,81.747362 88.8812032,83.335697 91.1871403,85.1010132 C99.5752448,91.5224831 125.881634,103.071368 129.860326,80.0680532 Z" fill="url(#linearGradient-3)" opacity="0.3"></path>
        </g>
    </g>
</svg>

<svg xmlns="http://www.w3.org/2000/svg" viewBox="0 0 512 161.541">
  <defs>
    <linearGradient id="a" x1="53.181" x2="69.808" y1="58.304" y2="115.583" gradientTransform="scale(1.07256 .93235)" gradientUnits="userSpaceOnUse">
      <stop offset="1.093%" stop-color="#E67417"/>
      <stop offset="99.952%" stop-color="#E62F17"/>
    </linearGradient>
    <linearGradient id="b" x1="61.18" x2="61.18" y1="71.191" y2="169.001" gradientTransform="scale(1.16154 .86092)" gradientUnits="userSpaceOnUse">
      <stop offset="0%" stop-color="#F2BB30"/>
      <stop offset="30.905%" stop-color="#E67417"/>
      <stop offset="100%" stop-color="#E62F17"/>
    </linearGradient>
    <linearGradient id="c" x1="88.903" x2="94.313" y1="103.331" y2="84.816" gradientTransform="scale(1.16465 .85863)" gradientUnits="userSpaceOnUse">
      <stop offset="0%" stop-color="#FFF"/>
      <stop offset="100%" stop-color="#FFF" stop-opacity="0"/>
    </linearGradient>
  </defs>
  <path fill="#3d3d3d" d="M191.39 57.14c6.42-6.419 12.84-10.38 21.035-10.38 9.56 0 16.116 3.551 18.985 12.02 8.468-8.742 15.16-12.02 22.946-12.02 13.658 0 20.487 7.785 20.487 25.268v40.838h-15.57v-36.74c0-10.244-1.776-14.888-9.152-14.888-5.19 0-10.653 3.141-16.936 9.834v41.794h-15.434v-36.74c0-10.244-2.185-14.888-9.424-14.888-5.736 0-11.473 3.688-16.936 9.97v41.658h-15.434V47.99h15.434zm155.748 23.63c0 20.35-12.839 33.325-33.053 33.325s-32.916-12.975-32.916-33.326c0-20.897 12.838-34.145 32.916-34.009 20.214-.136 33.053 13.112 33.053 34.01zm-15.16 0c0-13.66-6.966-21.308-17.893-21.308-10.79 0-17.756 7.649-17.756 21.307 0 13.112 6.83 20.488 17.756 20.488 10.927 0 17.893-7.376 17.893-20.488zm21.263 32.096V24.087h15.434v88.78zm68.645-2.731a45.18 45.18 0 0 1-16.39 3.414c-14.341 0-20.214-6.556-20.214-22.672V60.828h-9.56V47.853h9.56v-15.57h15.57v15.57h18.029v12.975h-18.029v29.366c0 7.785 2.732 9.97 10.107 9.97 3.105.046 6.21-.136 9.288-.546zm15.102-89.462c4.78 0 9.014 2.868 9.014 8.331 0 5.464-4.234 8.195-9.014 8.195-4.78 0-9.014-2.731-9.014-8.195 0-5.463 4.234-8.331 9.014-8.331zm-7.648 92.193V47.99h15.433v64.877zm38.407-55.862c7.102-6.283 13.931-10.244 23.082-10.244C505.171 46.76 512 54.41 512 72.028v40.838h-15.434v-36.74c0-10.517-1.64-14.888-10.244-14.888-6.966 0-13.112 3.824-18.575 10.107v41.521h-15.434V47.99h15.434z"/>
  <path fill="#fff" d="M136.04 40.667 73.308 4.45a4.492 4.492 0 0 0-4.484 0L6.092 40.667a4.488 4.488 0 0 0-2.242 3.886v72.436c0 1.602.854 3.082 2.242 3.883l62.732 36.218c1.388.8 3.096.8 4.484 0l62.732-36.218a4.485 4.485 0 0 0 2.242-3.883V44.553a4.488 4.488 0 0 0-2.242-3.886z"/>
  <path fill="#999" d="M137.968 37.335 75.233 1.115a8.345 8.345 0 0 0-8.333 0L4.167 37.333A8.367 8.367 0 0 0 0 44.553v72.436a8.36 8.36 0 0 0 4.167 7.218L66.9 160.425a8.332 8.332 0 0 0 8.333 0l62.733-36.218a8.36 8.36 0 0 0 4.167-7.218V44.553a8.364 8.364 0 0 0-4.164-7.218zm.314 79.654a4.485 4.485 0 0 1-2.242 3.883L73.308 157.09c-1.388.8-3.096.8-4.484 0L6.092 120.872a4.485 4.485 0 0 1-2.242-3.883V44.553c0-1.603.854-3.084 2.242-3.886L68.824 4.45c1.388-.8 3.096-.8 4.484 0l62.732 36.218a4.488 4.488 0 0 1 2.242 3.886z"/>
  <path fill="url(#a)" d="M14.82 116.186a5.097 5.097 0 0 1-2.548-4.414V74.996a36.396 36.396 0 0 1 1.836-12.447c2.139-5.774 6.37-11.422 14.755-14.753 16.068-6.383 31.95 2.247 40.921 15.04 7.533 10.742 11.93 15.013 21.403 22.265 8.388 6.422 34.695 17.97 38.673-5.033v31.704c0 1.82-.971 3.503-2.548 4.414l-53.698 31.002c-1.576.91-3.52.91-5.096 0z" style="fill:url(#a)"/>
  <path fill="url(#b)" d="m14.82 116.186 53.698 31.002c1.577.91 3.52.91 5.097 0l53.697-31.002a5.097 5.097 0 0 0 2.548-4.414V80.068c0-23.483-26.193-25.422-39.692-6.758-10.7 14.792-15.44 20.089-29.762 25.297-16.763 6.096-31.808 2.79-40.365-5.58a25.488 25.488 0 0 1-7.77-18.03v36.775c0 1.82.972 3.503 2.55 4.414z" style="fill:url(#b)"/>
  <path fill="url(#c)" d="M129.86 80.068c0-23.483-26.193-25.422-39.693-6.758-1.857 2.568-3.533 4.844-5.112 6.889 1.823 1.548 3.826 3.137 6.132 4.902 8.388 6.421 34.695 17.97 38.673-5.033z" opacity=".3" style="fill:url(#c)"/>
</svg>
